X:1
T:Title
%%score { 1 | 2 }
L:1/8
M:6/4
K:Bb
V:1 treble nm="Grand Piano"
V:2 bass 
V:1
 z6 z4[Q:1/4=114] [DF]2 | [DF]3 [DG] [DA]2 [DB]2 [DA]2 [DG]2 | [DF]3 [DG] [DF]2 .D6 | A3 G A2 .c6 | %4
 [DF]3 [DG] [DF]2 [DB]4 [DF]2 | [DF]3 [DG] [DA]2 [DB]2 [DA]2 [DG]2 | %6
 [DF]3 [DG] [DF]2[K:bass] .[F,B,D]6 | [=E,B,C]3[K:treble] [G,C=E] [B,EG]2 .[DGB]6 | %8
 [FA]3 [FA] G2 F6 | A3 A A2 c4 FF | [B,DB]4 [EGB]2 [DFB]6 | A3 A A2 c4 FF | [B,DB]4 [EGB]2 [DFB]6 | %13
 d2 d2 d2 c4 cc | [FB]2 [FB]2 [EB]2 [DF]6 |[M:13/8] A3 A A2 .c3 z2 F2 |[M:6/4] d3 d c2 [DB]6 |] %17
V:2
 z6 z4 [B,,B,]2 | [B,,B,]3 [B,,B,] [B,,B,]2 [B,,F,]2 [B,,F,]2 [B,,F,]2 | %2
 [B,,B,]3 [B,,B,] [B,,B,]2 .[B,,F,B,]6 | [F,E]3 [F,E] [F,E]2 .[F,A,E]6 | %4
 [B,,B,]3 [B,,B,] [B,,B,]2 [B,,F,]4 [B,,B,]2 | %5
 [B,,B,]3 [B,,B,] [B,,B,]2 [B,,F,]2 [B,,F,]2 [B,,F,]2 | [B,,B,]3 [B,,B,] [B,,B,]2 .B,,6 | %7
 C,3 C, C,2 .C,6 | [C,C]3 [C,C] [C,B,C]2 [F,A,C]6 | [F,CE]3 [F,CE] [F,CE]2 [F,A,E]4 [F,CE][F,CE] | %10
 B,,4 B,,2 B,,6 | [F,CE]3 [F,CE] [F,CE]2 [F,A,E]4 [F,CE][F,CE] | B,,4 B,,2 B,,6 | %13
 [B,F]2 [B,F]2 [B,F]2 [F,A,F]4 [F,A,F][K:bass][F,A,F] | [D,B,]2 [D,B,]2 [C,B,]2 [B,,B,]6 | %15
[M:13/8] [F,CE]3 [F,CE] [F,CE]2 .[F,A,E]3 z2 [F,A,]2 |[M:6/4] [F,A,F]3 [F,A,F] [F,E]2 [B,,F,]6 |] %17

